color/svg/1F4D5.svg

<svg id="emoji" viewBox="0 0 72 72" xmlns="http://www.w3.org/2000/svg">
  <g id="color">
    <path fill="#fff" d="m15.0085,57.9906l41.8485-.3812c1.6527-.0052,2.9897-1.0964,2.9897-2.7491V15.1491c0-1.6564-1.3427-2.9991-2.9991-2.9991H16.9535c-.8205,0-1.6052.3362-2.1712.9302l-1.9544,2.051c-.5314.5577-.8279,1.2985-.8279,2.0689v37.7914c0,1.66,1.3485,3.0043,3.0085,2.9991Z"/>
    <path fill="#d22f27" d="m55.0015,61H11.9985c-.5515,0-.9985-.447-.9985-.9985V16.9985c0-.5515.447-.9985.9985-.9985h43.003c.5515,0,.9985.447.9985.9985v43.003c0,.5515-.447.9985-.9985.9985Z"/>
  </g>
  <g id="line">
    <path fill="none" stroke="#000" stroke-linecap="round" stroke-linejoin="round" stroke-width="2" d="m11.164,16.4512l4.8345-4.4512h43.003c.5515,0,.9985.447.9985.9985v43.003c0,.5515-.447.9985-.9985.9985"/>
    <path fill="none" stroke="#000" stroke-linecap="round" stroke-linejoin="round" stroke-width="2" d="m55.0015,61H11.9985c-.5515,0-.9985-.447-.9985-.9985V16.9985c0-.5515.447-.9985.9985-.9985h43.003c.5515,0,.9985.447.9985.9985v43.003c0,.5515-.447.9985-.9985.9985Z"/>
  </g>
</svg>

<svg id="emoji" viewBox="0 0 72 72" xmlns="http://www.w3.org/2000/svg">
  <g id="color">
    <polygon fill="#FFFFFF" stroke="none" points="12,58 59.8467,57.85 59.8467,12.15 15.6686,12.15 12,16"/>
    <path fill="#d22f27" stroke="none" stroke-linecap="round" stroke-linejoin="round" stroke-miterlimit="10" stroke-width="2" d="M55.0015,61h-43.003C11.447,61,11,60.553,11,60.0015v-43.003C11,16.447,11.447,16,11.9985,16h43.003 C55.553,16,56,16.447,56,16.9985v43.003C56,60.553,55.553,61,55.0015,61z"/>
  </g>
  <g id="hair"/>
  <g id="skin"/>
  <g id="skin-shadow"/>
  <g id="line">
    <path fill="none" stroke="#000000" stroke-linecap="round" stroke-linejoin="round" stroke-miterlimit="10" stroke-width="2" d="M11,17l4.9985-5h43.003C59.553,12,60,12.447,60,12.9985v43.003C60,56.553,59.553,57,59.0015,57"/>
    <path fill="none" stroke="#000000" stroke-linecap="round" stroke-linejoin="round" stroke-miterlimit="10" stroke-width="2" d="M55.0015,61h-43.003C11.447,61,11,60.553,11,60.0015v-43.003C11,16.447,11.447,16,11.9985,16h43.003 C55.553,16,56,16.447,56,16.9985v43.003C56,60.553,55.553,61,55.0015,61z"/>
  </g>
</svg>
